packages/tokens/icons/cashRegister/size16Px.svg

<svg viewBox="0 0 16 16" fill="none" xmlns="http://www.w3.org/2000/svg" width="1em" height="1em"><path d="M13.5 6.99977L13.5 12.5L2.5 12.5L2.5 6.9998C2.5 6.17137 3.17157 5.4998 4 5.4998L7.65 5.4998L12 5.49977C12.8284 5.49976 13.5 6.17134 13.5 6.99977Z" stroke="currentColor" stroke-linecap="round"/><path d="M7.5 2C7.5 1.72386 7.72386 1.5 8 1.5L13 1.5C13.2761 1.5 13.5 1.72386 13.5 2V3C13.5 3.27614 13.2761 3.5 13 3.5L8 3.5C7.72386 3.5 7.5 3.27614 7.5 3V2Z" stroke="currentColor"/><rect x="1.5" y="12.5" width="13" height="2" rx="0.5" stroke="currentColor"/><path d="M9.5 3.5L11.5 3.5V5.5H9.5V3.5Z" stroke="currentColor"/><mask id="path-5-inside-1_2_60599" fill="currentColor"><path d="M4 8.5C4 8.22386 4.22386 8 4.5 8H5.5C5.77614 8 6 8.22386 6 8.5C6 8.77614 5.77614 9 5.5 9H4.5C4.22386 9 4 8.77614 4 8.5Z"/><path d="M4 10.5C4 10.2239 4.22386 10 4.5 10H5.5C5.77614 10 6 10.2239 6 10.5C6 10.7761 5.77614 11 5.5 11H4.5C4.22386 11 4 10.7761 4 10.5Z"/><path d="M7 8.5C7 8.22386 7.22386 8 7.5 8H8.5C8.77614 8 9 8.22386 9 8.5C9 8.77614 8.77614 9 8.5 9H7.5C7.22386 9 7 8.77614 7 8.5Z"/><path d="M7 10.5C7 10.2239 7.22386 10 7.5 10H8.5C8.77614 10 9 10.2239 9 10.5C9 10.7761 8.77614 11 8.5 11H7.5C7.22386 11 7 10.7761 7 10.5Z"/><path d="M10 8.5C10 8.22386 10.2239 8 10.5 8H11.5C11.7761 8 12 8.22386 12 8.5C12 8.77614 11.7761 9 11.5 9H10.5C10.2239 9 10 8.77614 10 8.5Z"/><path d="M10 10.5C10 10.2239 10.2239 10 10.5 10L11.5 10C11.7761 10 12 10.2239 12 10.5C12 10.7761 11.7761 11 11.5 11L10.5 11C10.2239 11 10 10.7761 10 10.5Z"/></mask><path d="M4.5 9H5.5V7H4.5V9ZM5.5 8H4.5V10H5.5V8ZM4.5 8C4.77614 8 5 8.22386 5 8.5H3C3 9.32843 3.67157 10 4.5 10V8ZM5 8.5C5 8.22386 5.22386 8 5.5 8V10C6.32843 10 7 9.32843 7 8.5H5ZM5.5 9C5.22386 9 5 8.77614 5 8.5H7C7 7.67157 6.32843 7 5.5 7V9ZM4.5 7C3.67157 7 3 7.67157 3 8.5H5C5 8.77614 4.77614 9 4.5 9V7ZM4.5 11H5.5V9H4.5L4.5 11ZM5.5 10H4.5L4.5 12H5.5L5.5 10ZM4.5 10C4.77614 10 5 10.2239 5 10.5H3C3 11.3284 3.67157 12 4.5 12L4.5 10ZM5 10.5C5 10.2239 5.22386 10 5.5 10L5.5 12C6.32843 12 7 11.3284 7 10.5H5ZM5.5 11C5.22386 11 5 10.7761 5 10.5H7C7 9.67157 6.32843 9 5.5 9V11ZM4.5 9C3.67157 9 3 9.67157 3 10.5H5C5 10.7761 4.77614 11 4.5 11L4.5 9ZM7.5 9H8.5V7H7.5V9ZM8.5 8H7.5V10H8.5V8ZM7.5 8C7.77614 8 8 8.22386 8 8.5H6C6 9.32843 6.67157 10 7.5 10V8ZM8 8.5C8 8.22386 8.22386 8 8.5 8V10C9.32843 10 10 9.32843 10 8.5L8 8.5ZM8.5 9C8.22386 9 8 8.77614 8 8.5L10 8.5C10 7.67157 9.32843 7 8.5 7V9ZM7.5 7C6.67157 7 6 7.67157 6 8.5H8C8 8.77614 7.77614 9 7.5 9V7ZM7.5 11H8.5V9H7.5V11ZM8.5 10H7.5V12H8.5V10ZM7.5 10C7.77614 10 8 10.2239 8 10.5H6C6 11.3284 6.67157 12 7.5 12V10ZM8 10.5C8 10.2239 8.22386 10 8.5 10V12C9.32843 12 10 11.3284 10 10.5H8ZM8.5 11C8.22386 11 8 10.7761 8 10.5H10C10 9.67157 9.32843 9 8.5 9V11ZM7.5 9C6.67157 9 6 9.67157 6 10.5H8C8 10.7761 7.77614 11 7.5 11V9ZM10.5 9H11.5V7H10.5V9ZM11.5 8H10.5V10L11.5 10V8ZM10.5 8C10.7761 8 11 8.22386 11 8.5L9 8.5C9 9.32843 9.67157 10 10.5 10V8ZM11 8.5C11 8.22386 11.2239 8 11.5 8V10C12.3284 10 13 9.32843 13 8.5H11ZM11.5 9C11.2239 9 11 8.77614 11 8.5H13C13 7.67157 12.3284 7 11.5 7V9ZM10.5 7C9.67157 7 9 7.67157 9 8.5L11 8.5C11 8.77614 10.7761 9 10.5 9V7ZM10.5 11L11.5 11V9H10.5V11ZM11.5 10L10.5 10V12H11.5V10ZM10.5 10C10.7761 10 11 10.2239 11 10.5L9 10.5C9 11.3284 9.67157 12 10.5 12V10ZM11 10.5C11 10.2239 11.2239 10 11.5 10V12C12.3284 12 13 11.3284 13 10.5H11ZM11.5 11C11.2239 11 11 10.7761 11 10.5H13C13 9.67157 12.3284 9 11.5 9V11ZM10.5 9C9.67157 9 9 9.67157 9 10.5L11 10.5C11 10.7761 10.7761 11 10.5 11V9Z" fill="currentColor" mask="url(#path-5-inside-1_2_60599)"/></svg>

<svg xmlns="http://www.w3.org/2000/svg" fill="none" viewBox="0 0 16 16" width="1em" height="1em"><path stroke="currentColor" stroke-linecap="round" d="M13.5 7v5.5h-11V7A1.5 1.5 0 0 1 4 5.5h8A1.5 1.5 0 0 1 13.5 7Z"/><path stroke="currentColor" d="M7.5 2a.5.5 0 0 1 .5-.5h5a.5.5 0 0 1 .5.5v1a.5.5 0 0 1-.5.5H8a.5.5 0 0 1-.5-.5V2Z"/><rect width="13" height="2" x="1.5" y="12.5" stroke="currentColor" rx=".5"/><path stroke="currentColor" d="M9.5 3.5h2v2h-2v-2Z"/><mask id="iconsCashRegisterSize16Px__a" fill="#fff"><path d="M4 8.5a.5.5 0 0 1 .5-.5h1a.5.5 0 0 1 0 1h-1a.5.5 0 0 1-.5-.5Zm0 2a.5.5 0 0 1 .5-.5h1a.5.5 0 0 1 0 1h-1a.5.5 0 0 1-.5-.5Zm3-2a.5.5 0 0 1 .5-.5h1a.5.5 0 0 1 0 1h-1a.5.5 0 0 1-.5-.5Zm0 2a.5.5 0 0 1 .5-.5h1a.5.5 0 0 1 0 1h-1a.5.5 0 0 1-.5-.5Zm3-2a.5.5 0 0 1 .5-.5h1a.5.5 0 0 1 0 1h-1a.5.5 0 0 1-.5-.5Zm0 2a.5.5 0 0 1 .5-.5h1a.5.5 0 0 1 0 1h-1a.5.5 0 0 1-.5-.5Z"/></mask><path fill="currentColor" d="M4.5 9h1V7h-1v2Zm1-1h-1v2h1V8Zm-1 0a.5.5 0 0 1 .5.5H3A1.5 1.5 0 0 0 4.5 10V8Zm.5.5a.5.5 0 0 1 .5-.5v2A1.5 1.5 0 0 0 7 8.5H5Zm.5.5a.5.5 0 0 1-.5-.5h2A1.5 1.5 0 0 0 5.5 7v2Zm-1-2A1.5 1.5 0 0 0 3 8.5h2a.5.5 0 0 1-.5.5V7Zm0 4h1V9h-1v2Zm1-1h-1v2h1v-2Zm-1 0a.5.5 0 0 1 .5.5H3A1.5 1.5 0 0 0 4.5 12v-2Zm.5.5a.5.5 0 0 1 .5-.5v2A1.5 1.5 0 0 0 7 10.5H5Zm.5.5a.5.5 0 0 1-.5-.5h2A1.5 1.5 0 0 0 5.5 9v2Zm-1-2A1.5 1.5 0 0 0 3 10.5h2a.5.5 0 0 1-.5.5V9Zm3 0h1V7h-1v2Zm1-1h-1v2h1V8Zm-1 0a.5.5 0 0 1 .5.5H6A1.5 1.5 0 0 0 7.5 10V8Zm.5.5a.5.5 0 0 1 .5-.5v2A1.5 1.5 0 0 0 10 8.5H8Zm.5.5a.5.5 0 0 1-.5-.5h2A1.5 1.5 0 0 0 8.5 7v2Zm-1-2A1.5 1.5 0 0 0 6 8.5h2a.5.5 0 0 1-.5.5V7Zm0 4h1V9h-1v2Zm1-1h-1v2h1v-2Zm-1 0a.5.5 0 0 1 .5.5H6A1.5 1.5 0 0 0 7.5 12v-2Zm.5.5a.5.5 0 0 1 .5-.5v2a1.5 1.5 0 0 0 1.5-1.5H8Zm.5.5a.5.5 0 0 1-.5-.5h2A1.5 1.5 0 0 0 8.5 9v2Zm-1-2A1.5 1.5 0 0 0 6 10.5h2a.5.5 0 0 1-.5.5V9Zm3 0h1V7h-1v2Zm1-1h-1v2h1V8Zm-1 0a.5.5 0 0 1 .5.5H9a1.5 1.5 0 0 0 1.5 1.5V8Zm.5.5a.5.5 0 0 1 .5-.5v2A1.5 1.5 0 0 0 13 8.5h-2Zm.5.5a.5.5 0 0 1-.5-.5h2A1.5 1.5 0 0 0 11.5 7v2Zm-1-2A1.5 1.5 0 0 0 9 8.5h2a.5.5 0 0 1-.5.5V7Zm0 4h1V9h-1v2Zm1-1h-1v2h1v-2Zm-1 0a.5.5 0 0 1 .5.5H9a1.5 1.5 0 0 0 1.5 1.5v-2Zm.5.5a.5.5 0 0 1 .5-.5v2a1.5 1.5 0 0 0 1.5-1.5h-2Zm.5.5a.5.5 0 0 1-.5-.5h2A1.5 1.5 0 0 0 11.5 9v2Zm-1-2A1.5 1.5 0 0 0 9 10.5h2a.5.5 0 0 1-.5.5V9Z" mask="url(#iconsCashRegisterSize16Px__a)"/></svg>
